icons/evolvere-blue-folders-flat-vivid-dark-fallback/mimetypes/64/unknown.svg

<?xml version="1.0" encoding="UTF-8" standalone="no"?>
<!-- Created with Inkscape (http://www.inkscape.org/) -->

<svg
   xmlns:dc="http://purl.org/dc/elements/1.1/"
   xmlns:cc="http://creativecommons.org/ns#"
   xmlns:rdf="http://www.w3.org/1999/02/22-rdf-syntax-ns#"
   xmlns:svg="http://www.w3.org/2000/svg"
   xmlns="http://www.w3.org/2000/svg"
   xmlns:sodipodi="http://sodipodi.sourceforge.net/DTD/sodipodi-0.dtd"
   xmlns:inkscape="http://www.inkscape.org/namespaces/inkscape"
   version="1.1"
   width="64"
   height="64"
   id="svg13094"
   inkscape:version="0.48.4 r9939"
   sodipodi:docname="unknown.svg">
  <sodipodi:namedview
     pagecolor="#ffffff"
     bordercolor="#666666"
     borderopacity="1"
     objecttolerance="10"
     gridtolerance="10"
     guidetolerance="10"
     inkscape:pageopacity="0"
     inkscape:pageshadow="2"
     inkscape:window-width="1920"
     inkscape:window-height="1022"
     id="namedview91"
     showgrid="true"
     inkscape:zoom="7.375"
     inkscape:cx="47.052397"
     inkscape:cy="31.329707"
     inkscape:window-x="-5"
     inkscape:window-y="23"
     inkscape:window-maximized="1"
     inkscape:current-layer="svg13094"
     inkscape:snap-bbox="true"
     inkscape:bbox-paths="true"
     inkscape:bbox-nodes="true"
     inkscape:snap-bbox-edge-midpoints="true"
     inkscape:snap-bbox-midpoints="true"
     inkscape:object-paths="true"
     inkscape:snap-intersection-paths="true"
     inkscape:object-nodes="true"
     inkscape:snap-smooth-nodes="true"
     inkscape:snap-midpoints="true"
     inkscape:snap-object-midpoints="true"
     inkscape:snap-center="true">
    <inkscape:grid
       type="xygrid"
       id="grid3074" />
  </sodipodi:namedview>
  <defs
     id="defs11">
    <linearGradient
       x1="48.917568"
       y1="46.213669"
       x2="32.669781"
       y2="24"
       id="linearGradient4259-6"
       gradientUnits="userSpaceOnUse">
      <stop
         id="stop3988-6"
         style="stop-color:#ffffff;stop-opacity:0.52975047"
         offset="0" />
      <stop
         id="stop3990-9-9"
         style="stop-color:#ffffff;stop-opacity:0"
         offset="1" />
    </linearGradient>
    <linearGradient
       x1="48.917568"
       y1="46.213669"
       x2="32.669781"
       y2="24"
       id="linearGradient4259-6-1"
       gradientUnits="userSpaceOnUse">
      <stop
         id="stop3988-6-1"
         style="stop-color:#ffffff;stop-opacity:0.52975047"
         offset="0" />
      <stop
         id="stop3990-9-2"
         style="stop-color:#ffffff;stop-opacity:0"
         offset="1" />
    </linearGradient>
  </defs>
  <metadata
     id="metadata13099">
    <rdf:RDF>
      <cc:Work
         rdf:about="">
        <dc:format>image/svg+xml</dc:format>
        <dc:type
           rdf:resource="http://purl.org/dc/dcmitype/StillImage" />
        <dc:title />
      </cc:Work>
    </rdf:RDF>
  </metadata>
  <path
     inkscape:connector-curvature="0"
     d="M 4,0 64,0 64,62 4,62 z"
     id="path3960"
     style="fill:#c8d4dc;fill-opacity:1;fill-rule:nonzero" />
  <path
     inkscape:connector-curvature="0"
     style="fill:#222e33;fill-opacity:0.12192981;fill-rule:nonzero"
     d="M 60,2 60,33 35.677734,62 64,62 64,37 64,6 60,2 z"
     id="path3900" />
  <path
     inkscape:connector-curvature="0"
     d="M 0,2 60,2 60,33 34,64 0,64 z"
     id="path4257"
     style="fill:url(#linearGradient4259-6-1);fill-rule:nonzero" />
  <path
     inkscape:connector-curvature="0"
     d="M 0,2 60,2 60,33 34,64 0,64 z"
     id="path3982"
     style="color:#000000;fill:#edf0f2;fill-opacity:1;fill-rule:nonzero;stroke:none;stroke-width:1;marker:none;visibility:visible;display:inline;overflow:visible;enable-background:accumulate" />
  <path
     inkscape:connector-curvature="0"
     d="M 34,64 60,33 c -2.328567,2.776369 -4.36141,3 -11,3 H 37 v 15 c 0,6.644068 0.04437,9.370179 -3,13 z"
     id="path4278"
     style="fill:#cdd9df;fill-opacity:1;fill-rule:nonzero" />
  <path
     inkscape:connector-curvature="0"
     style="color:#000000;fill:#103e58;fill-opacity:0.13684214;fill-rule:nonzero;stroke:none;stroke-width:1;marker:none;visibility:visible;display:inline;overflow:visible;enable-background:accumulate"
     d="m 0,2 0,62 1,0 33,0 0,-1 L 1,63 1,2 0,2 z"
     id="rect3784" />
  <path
     style="color:#000000;fill:#6d808c;fill-opacity:1;fill-rule:nonzero;stroke:none;stroke-width:1;marker:none;visibility:visible;display:inline;overflow:visible;enable-background:accumulate"
     d="M 13.5,7 C 8.817464,7 5,10.817458 5,15.5 l 2.03125,0 c 0,-3.601661 2.867093,-6.46875 6.46875,-6.46875 3.601657,0 6.46875,2.867089 6.46875,6.46875 0,3.601661 -2.867093,6.5 -6.46875,6.5 -0.647354,0 -1.287471,-0.09104 -1.90625,-0.28125 L 11,23.625 C 11.809167,23.873734 12.653465,24 13.5,24 18.182536,24 22,20.182542 22,15.5 22,10.817458 18.182536,7 13.5,7 z m 0,19 c -1.104569,0 -2,0.895431 -2,2 0,1.104569 0.895431,2 2,2 1.104569,0 2,-0.895431 2,-2 0,-1.104569 -0.895431,-2 -2,-2 z"
     id="path3882"
     inkscape:connector-curvature="0" />
</svg>

<svg xmlns="http://www.w3.org/2000/svg" viewBox="0 0 64 64"><defs><linearGradient x1="48.918" y1="46.21" x2="32.67" y2="24" id="0" gradientUnits="userSpaceOnUse"><stop stop-color="#fff" stop-opacity=".53"/><stop offset="1" stop-color="#fff" stop-opacity="0"/></linearGradient></defs><path d="m4 0h60v62h-60z" fill="#c8d4dc"/><path d="m60 2v31l-24.322 29h28.322v-25-31l-4-4" fill="#222e33" fill-opacity=".122"/><path d="m0 2h60v31l-26 31h-34z" fill="url(#0)"/><path d="m0 2h60v31l-26 31h-34z" fill="#edf0f2" color="#000"/><path d="m34 64l26-31c-2.329 2.776-4.361 3-11 3h-12v15c0 6.644.044 9.37-3 13" fill="#cdd9df"/><g color="#000"><path d="m0 2v62h1 33v-1h-33v-61h-1" fill="#103e58" fill-opacity=".137"/><path d="m13.5 7c-4.683 0-8.5 3.817-8.5 8.5h2.031c0-3.602 2.867-6.469 6.469-6.469 3.602 0 6.469 2.867 6.469 6.469 0 3.602-2.867 6.5-6.469 6.5-.647 0-1.287-.091-1.906-.281l-.594 1.906c.809.249 1.653.375 2.5.375 4.683 0 8.5-3.817 8.5-8.5 0-4.683-3.817-8.5-8.5-8.5m0 19c-1.105 0-2 .895-2 2 0 1.105.895 2 2 2 1.105 0 2-.895 2-2 0-1.105-.895-2-2-2" fill="#6d808c"/></g></svg>
